X:182
T:Lord Nelson's Hornpipe
R:hp 32
S:Thomas Hardy
Z:P J Headford
M:4/4
L:1/8
Q:1/4=140
K:D
|:A>F|D2d2 d2c>d|e>cA>c e2d>e|f>df>d g>eg>e|a>fd>f e2A>F|
D2d2 d2c>d|e>cA>c e2c>d|e>ce>c d>B^G>B|A2A2 A2:|
|:f>g|a>gf>e d>cB>A|B2G2 G2g>a|b>ag>f g>fe>d|c2A2 A2f>g|
a>fa>f g>bg>b|a>fa>f g>bg>b|a>fb>g f>ed>c|d2d2 d2:|]

